X:289
T: Abendlust
N: A0334A
O: Europa, Mitteleuropa, Deutschland
N: Hainhofer Lautenbuch II S. 32b. (1603)
R: Romanze, Ballade, Lied, Trinklied
M: 4/2
L: 1/4
K: A
E2 | A2A2B2AB | c2BAB2
d2 | c2A2G2FG | A4z2
E2 | A2A2B2AB | c2BAB2
d2 | c2A2G2FG | A4z2
A2 | d2c2B2AB | c2BAB2
c2 | d2c2B2AB | c2BAB2z2 |
c2A2A2G2 | A4z2

@@@ Tune index: 289
